X:1
T:The School Of Velocity
T:Op. 299, No. 6
T:Carl Czerny (1791-1857)
%%score { 1 | 2 }
L:1/8
M:4/4
K:C
V:1 treble nm="Piano"
V:2 bass 
V:1
"C""^6.""^Updated Sep 15, 2014" !1!G/!4!e/!3!d/!2!c/ !1!G/!4!e/!3!d/!2!c/ G/e/d/c/ G/e/d/c/ | %1
"G7" !1!G/!5!f/!4!e/!3!d/ !1!G/!5!f/!4!e/!3!d/ G/f/e/d/ G/f/e/d/ | %2
"G7" !1!G/!4!d/!3!c/!2!B/ G/d/c/B/ G/d/c/B/ G/d/c/B/ | %3
"C" !1!G/!5!e/!4!d/!3!c/ !1!G/!4!e/!3!d/!2!c/ G/e/d/c/ G/e/d/c/ | %4
"D7" !1!A/!5!a/!3!g/!2!^f/ A/a/g/f/ A/a/g/f/ A/a/g/f/ | %5
"G" !1!d/!5!d'/!4!c'/!3!b/ d/d'/c'/b/"Am" !1!e/!4!c'/!3!b/!2!a/ e/c'/b/a/ | %6
"G" !1!d/!5!b/!4!a/!3!g/ d/b/a/g/"D7" !1!d/!4!a/!3!g/!2!^f/ d/a/g/f/ | %7
"G" !1!g/a/b/c'/ !5!d'/c'/b/a/ !1!g/!2!^f/!3!g/!4!a/ g/=f/!1!e/!2!d/ | %8
"C" !5!g/!3!e/!2!d/!1!c/ g/e/d/c/ g/e/d/c/ g/e/d/c/ | %9
"G7" !5!g/!4!f/!3!e/!2!d/ !5!g/!4!f/!3!e/!1!d/ !4!g/!3!f/!2!e/!1!d/ g/f/e/d/ | %10
"G7" !5!d'/!3!b/!2!a/!1!g/ d'/b/a/g/ d'/b/a/g/ d'/b/a/g/ | %11
"C" !5!e'/!4!d'/!3!c'/!1!g/ e'/d'/c'/g/ e'/d'/c'/g/ e'/d'/c'/g/ | %12
"Adim" !5!c'/!4!a/!3!g/!2!^f/ c'/a/g/f/ c'/a/g/f/ c'/a/g/f/ | %13
"Em" !5!b/!3!g/!2!^f/!1!e/ b/g/f/e/ b/g/f/e/ b/g/f/e/ | %14
"B7" !5!a/!4!^f/!3!e/!2!^d/ a/f/e/d/ a/f/e/d/ a/f/e/d/ | %15
"Em" !1!e/!2!^f/!3!g/!1!a/ b/^c'/^d'/!5!e'/ !1!e/!2!^d/!3!e/!4!f/ !5!g/!4!f/!5!g/!3!e/ | %16
"A7" !2!^c/!3!e/!4!=f/!5!g/ c/e/f/g/ c/e/f/g/ c/e/f/g/ | %17
"Dm" !1!A/!3!d/!4!e/!5!f/ A/d/e/f/ A/d/e/f/ A/d/e/f/ | %18
"G7" !2!B/!3!d/!4!e/!5!f/ !2!B/!3!d/e/f/ B/d/e/f/ B/d/e/f/ | %19
"C" !1!G/!3!c/!4!d/!5!e/ G/c/d/e/ G/c/d/e/ G/c/d/e/ | %20
"F#dim" !2!A/!3!c/!4!d/!5!_e/ !2!A/!3!c/d/e/ A/c/d/e/ A/c/d/e/ | %21
 !1!_E/!3!A/!4!B/!5!c/ E/A/B/c/ E/A/B/c/ E/A/B/c/ | %22
"G" !1!D/!2!G/!3!A/!4!B/ D/G/A/B/"G7/F" !1!G/!2!B/!3!c/!4!d/ G/B/c/d/ | %23
"C/E" !1!G/!2!c/!3!d/!4!=e/ G/c/d/e/"G7/D" !1!G/!3!d/!4!e/!5!f/ G/d/e/f/ | %24
"C" !1!G/!4!e/!3!d/!2!c/ !5!g/!4!e/!3!d/!2!c/ G/e/d/c/ g/e/d/c/ | %25
"G7" !1!G/!4!f/!3!e/!2!d/ !5!g/!4!f/!3!e/!2!d/ G/f/e/d/ g/f/e/d/ | %26
"G7" !1!B/!4!b/!3!a/!2!g/ !5!d'/!4!b/!3!a/!2!g/ B/b/a/g/ d'/b/a/g/ | %27
"C" !1!e/!4!e'/!3!d'/!2!c'/!8va(! !5!g'/!4!e'/!3!d'/!2!c'/ e/e'/d'/c'/ g'/e'/d'/c'/ | %28
"A7" !2!^c'/!1!a/!2!c'/!3!e'/ !5!g'/!2!c'/!1!d'/!3!e'/ !5!_b'/!2!c'/!1!d'/!3!e'/ !5!a'/!2!c'/!1!d'/!3!e'/ | %29
"Dm" !5!g'/!1!a/!2!^c'/!3!d'/ !5!f'/!1!a/!2!c'/!3!d'/ !5!e'/!1!f/!2!^g/!3!a/ !5!d'/!1!f/!2!g/!3!a/ | %30
"C/G" !5!d'/!1!e/!2!f/!3!=g/ !5!=c'/!1!e/!2!f/!3!g/"G7" !5!c'/!1!d/!2!e/!3!f/ !5!b/!1!d/!2!e/!3!f/ | %31
"C" !2!!5![ec']/!3!g/!1!c/!2!e/ !3!g/!1!c'/!2!e'/!3!g'/ !5!c''!8va)! z z2 |] %32
V:2
 !3!!1![CE] z z2 z2 [CE] z | !4!!2![B,D] z z2 z2 [B,D] z | [G,DF] z z2 z2 [G,DF] z | %3
 [CE] z z2 z2 !5!!3![CE] z |[K:treble] !2![CD^F] z z2 z2 [CDF] z | %5
 !5!!4!!1![B,DG] z z2 !5!!3!!1![CEA] z z2 | !5!!2!!1![DGB] z z2 [DAc] z z2 | !3!!1![GB] z z2 z4 | %8
 !5![CEG] z z2 z2 [CEG] z | [B,DG] z z2 z2 [B,DG] z | [G,DF] z z2 z2 [G,DF] z | %11
 [CE] z z2 z2 !3!!1![CE] z | [A,C^F] z z2 z2 [A,CF] z | [B,EG] z z2 z2 [B,EG] z | %14
 [B,^FA] z z2 z2 [B,FA] z | [EG] z z2 z4 | [A,EG] z z2 z2 [A,EG] z | !3!!1![D=F] z z2 z2 [DF] z | %18
 [G,DF] z z2 z2 [G,DF] z | !3!!1![CE] z z2 z2 !2!!1![CE] z |[K:bass] [^F,C_E] z z2 z2 [F,CE] z | %21
 [^F,,^F,] z z2 z2 [F,,F,] z | [G,,G,] z z2 [=F,,=F,] z z2 | [=E,,=E,] z z2 [D,,D,] z z2 | %24
 [C,,C,] z [G,CE] z z2 [C,C] z | [B,,B,] z [G,DF] z z2 [B,,B,] z | %26
 [G,,G,] z [G,B,F] z z2 [G,,G,] z | [C,C] z [G,CE] z z2 [C,C] z | %28
 [A,,A,] z [A,^CE] z z2 [A,,A,] z | [D,D] z [A,DF] z [F,,F,] z [F,A,D] z | %30
 [G,,G,] z [G,CE] z [G,,G,] z [G,DF] z | [CE] z [C,C] z [C,,C,] z z2 |] %32

